X:8793
T:L'Ecossoise. JB.25
M:4/4
L:1/8
Q:110
S:James Biggins MS, Leeds, 1779.
R:Misc.
O:England
A:Yorkshire
Z:vmp.Nick Barber & Chris Partington
K:C
gf/e/ dc dcAG|c/d/e d/e/f"tr"e2d2|!gf/e/ dc dcAG|c/d/e/f/ gf "tr"ed/e/c2:|!
|:ce2d cg2B|cB/c/ Ad "tr"BA/B/G2|!ce2d cg2f|ed/e/ f/e/d/e/c2c2:|]


